logos/forestadmin.svg

<?xml version="1.0" encoding="UTF-8"?>
<svg width="512px" height="130px" viewBox="0 0 512 130" version="1.1" xmlns="http://www.w3.org/2000/svg" preserveAspectRatio="xMidYMid">
    <title>Forest Admin</title>
    <g>
        <path d="M161.913058,47.2264357 L161.913058,59.9478685 L179.865131,59.9478685 L179.865131,66.276297 L161.913058,66.276297 L161.913058,86.1010679 L155.197175,86.1010679 L155.197175,40.8980072 L181.350374,40.8980072 L181.350374,47.2264357 L161.913058,47.2264357 Z M199.284688,55.2984108 C202.384327,55.2984108 205.161086,55.9872194 207.614967,57.3648365 C210.111898,58.7424535 212.070697,60.636677 213.491365,63.0475069 C214.912032,65.4583368 215.622366,68.1705205 215.622366,71.1840578 C215.622366,74.1975952 214.912032,76.9097789 213.491365,79.3206088 C212.070697,81.7314387 210.111898,83.6256622 207.614967,85.0032792 C205.161086,86.3808963 202.384327,87.0697049 199.284688,87.0697049 C196.18505,87.0697049 193.386765,86.3808963 190.889834,85.0032792 C188.435954,83.6256622 186.49868,81.7314387 185.078012,79.3206088 C183.657345,76.9097789 182.947011,74.1975952 182.947011,71.1840578 C182.947011,68.1705205 183.657345,65.4583368 185.078012,63.0475069 C186.49868,60.636677 188.435954,58.7424535 190.889834,57.3648365 C193.386765,55.9872194 196.18505,55.2984108 199.284688,55.2984108 Z M199.284688,61.4976877 C196.443353,61.4976877 194.118624,62.3802237 192.310502,64.1452956 C190.54543,65.9103674 189.662894,68.2566215 189.662894,71.1840578 C189.662894,74.1114942 190.54543,76.4577483 192.310502,78.2228201 C194.118624,79.987892 196.443353,80.870428 199.284688,80.870428 C202.126024,80.870428 204.429227,79.987892 206.194299,78.2228201 C208.002422,76.4577483 208.906483,74.1114942 208.906483,71.1840578 C208.906483,68.2566215 208.002422,65.9103674 206.194299,64.1452956 C204.429227,62.3802237 202.126024,61.4976877 199.284688,61.4976877 Z M238.250265,62.7892037 L237.281628,62.7892037 C234.138939,62.7892037 231.77116,63.6071639 230.17829,65.2430842 C228.58542,66.8359539 227.788985,69.3759354 227.788985,72.8630287 L227.788985,86.1010679 L221.460557,86.1010679 L221.460557,56.2670478 L227.788985,56.2670478 L227.788985,62.7892037 L227.918137,62.7892037 C228.649996,60.5075254 229.855411,58.699403 231.534382,57.3648365 C233.256403,56.0302699 235.344354,55.3629866 237.798234,55.3629866 L238.250265,55.3629866 L238.250265,62.7892037 Z M254.438611,55.2984108 C258.915866,55.2984108 262.40296,56.7406037 264.899891,59.6249895 C267.439872,62.4663247 268.709863,66.3193475 268.709863,71.1840578 L268.709863,72.2172707 L245.591726,72.2172707 C245.720878,74.8433532 246.603414,76.9743547 248.239334,78.610275 C249.918305,80.2031447 252.049306,80.9995796 254.632338,80.9995796 C256.784865,80.9995796 258.571462,80.5044984 259.99213,79.5143362 C261.455848,78.4811233 262.725839,77.2326579 263.802102,75.7689397 L268.257832,79.9663668 C264.81379,84.7019255 260.315009,87.0697049 254.76149,87.0697049 C251.618801,87.0697049 248.863567,86.4239469 246.495787,85.1324308 C244.171059,83.7978643 242.362936,81.9466913 241.07142,79.578912 C239.822955,77.1680821 239.198722,74.3913226 239.198722,71.2486337 C239.198722,68.2350963 239.801429,65.5229126 241.006844,63.1120827 C242.25531,60.6582023 244.020382,58.7424535 246.30206,57.3648365 C248.626789,55.9872194 251.338973,55.2984108 254.438611,55.2984108 Z M254.051156,61.1102329 C251.855579,61.1102329 250.047456,61.6698899 248.626789,62.7892037 C247.206121,63.9085176 246.30206,65.5229126 245.914605,67.6323888 L261.864828,67.6323888 C261.735676,65.5659632 260.960767,63.9730934 259.540099,62.8537795 C258.162482,61.6914151 256.332834,61.1102329 254.051156,61.1102329 Z M283.729925,87.0697049 C281.620449,87.0697049 279.489448,86.7898764 277.336921,86.2302195 C275.227445,85.6705625 273.311696,84.8956529 271.589675,83.9054906 L274.43101,78.2873959 C277.70285,80.1816194 280.867065,81.1287312 283.923653,81.1287312 C287.023291,81.1287312 288.57311,80.2031447 288.57311,78.3519717 C288.57311,77.7062137 288.336332,77.1465568 287.862776,76.6730009 C287.432271,76.1563945 286.614311,75.5967376 285.408896,74.9940301 L279.984529,72.3464223 C275.808627,70.3660977 273.720676,67.5032372 273.720676,63.7578407 C273.720676,61.0456571 274.646263,58.9577062 276.497435,57.4939881 C278.391659,56.0302699 280.996216,55.2984108 284.311107,55.2984108 C285.990078,55.2984108 287.7121,55.5136635 289.477171,55.9441688 C291.285294,56.3316236 293.007315,56.8912806 294.643236,57.6231397 L292.060203,63.1120827 C289.046666,61.8205667 286.399058,61.1748087 284.11738,61.1748087 C281.6635,61.1748087 280.436559,61.9281931 280.436559,63.4349617 C280.436559,64.1668208 280.673337,64.7910536 281.146893,65.30766 C281.6635,65.8242664 282.567561,66.3839233 283.859077,66.9866308 L289.412596,69.6342386 C291.39292,70.5382998 292.878164,71.679139 293.868326,73.0567561 C294.858488,74.3913226 295.353569,76.0487682 295.353569,78.0290927 C295.353569,80.9995796 294.298831,83.2597326 292.189355,84.8095518 C290.122929,86.3163205 287.303119,87.0697049 283.729925,87.0697049 Z M309.258892,61.6268393 L309.258892,77.2541831 C309.258892,78.3304465 309.49567,79.1268814 309.969226,79.6434878 C310.485832,80.1170436 311.282267,80.3538216 312.35853,80.3538216 L313.908349,80.3538216 L313.908349,86.1656437 L311.002438,86.1656437 C308.376356,86.1656437 306.374506,85.4983604 304.996889,84.1637938 C303.619272,82.8292273 302.930463,80.9350038 302.930463,78.4811233 L302.930463,61.6268393 L297.635248,61.6268393 L297.635248,56.2670478 L302.930463,56.2670478 L302.930463,44.3205247 L309.258892,44.3205247 L309.258892,56.2670478 L315.329017,56.2670478 L315.329017,61.6268393 L309.258892,61.6268393 Z M365.832675,74.8648785 L346.07248,74.8648785 L341.745901,86.1010679 L334.38426,86.1010679 L352.852939,40.8980072 L359.052216,40.8980072 L377.520895,86.1010679 L370.159253,86.1010679 L365.832675,74.8648785 Z M363.44337,68.6656016 L355.952577,49.2928613 L348.461784,68.6656016 L363.44337,68.6656016 Z M393.664845,87.0697049 C390.995712,87.0697049 388.563357,86.4239469 386.367779,85.1324308 C384.172202,83.8409148 382.40713,82.0112671 381.072564,79.6434878 C379.781048,77.2326579 379.13529,74.4128479 379.13529,71.1840578 C379.13529,67.9552678 379.781048,65.1569831 381.072564,62.7892037 C382.40713,60.3783738 384.172202,58.5272009 386.367779,57.2356849 C388.563357,55.9441688 390.995712,55.2984108 393.664845,55.2984108 C396.032624,55.2984108 398.055999,55.7719667 399.73497,56.7190784 C401.413941,57.6661902 402.748508,58.9792315 403.73867,60.6582023 L403.867821,60.6582023 L403.867821,40.8980072 L410.19625,40.8980072 L410.19625,86.1010679 L403.867821,86.1010679 L403.867821,81.7099134 L403.73867,81.7099134 C402.748508,83.3888842 401.413941,84.7019255 399.73497,85.6490372 C398.055999,86.596149 396.032624,87.0697049 393.664845,87.0697049 Z M395.020937,80.870428 C397.776171,80.870428 399.993273,79.987892 401.672244,78.2228201 C403.351215,76.4146977 404.1907,74.0684436 404.1907,71.1840578 C404.1907,68.2996721 403.351215,65.9749432 401.672244,64.2098714 C399.993273,62.4017489 397.776171,61.4976877 395.020937,61.4976877 C392.265703,61.4976877 390.0486,62.4017489 388.369629,64.2098714 C386.690658,65.9749432 385.851173,68.2996721 385.851173,71.1840578 C385.851173,74.0684436 386.690658,76.4146977 388.369629,78.2228201 C390.0486,79.987892 392.265703,80.870428 395.020937,80.870428 Z M418.278988,56.2670478 L424.607416,56.2670478 L424.607416,60.9165055 L424.736568,60.9165055 C425.554528,58.9792315 426.738418,57.5585639 428.288237,56.6545026 C429.881107,55.7504414 431.689229,55.2984108 433.712604,55.2984108 C438.060708,55.2984108 441.074245,57.3217859 442.753216,61.3685361 L442.882368,61.3685361 C443.743378,59.345161 445.013369,57.8383923 446.69234,56.8482301 C448.371311,55.8150172 450.222484,55.2984108 452.245859,55.2984108 C455.259396,55.2984108 457.713277,56.3100984 459.6075,58.3334735 C461.501724,60.3568486 462.448835,63.456487 462.448835,67.6323888 L462.448835,86.1010679 L456.120407,86.1010679 L456.120407,67.9552678 C456.120407,65.8888422 455.603801,64.3174977 454.570588,63.2412343 C453.580425,62.164971 452.138233,61.6268393 450.244009,61.6268393 C448.177583,61.6268393 446.541663,62.3586984 445.336248,63.8224165 C444.130833,65.2430842 443.528126,67.5032372 443.528126,70.6028756 L443.528126,86.1010679 L437.199697,86.1010679 L437.199697,67.9552678 C437.199697,65.8888422 436.683091,64.3174977 435.649878,63.2412343 C434.659716,62.164971 433.195998,61.6268393 431.258724,61.6268393 C429.235349,61.6268393 427.620954,62.3586984 426.415539,63.8224165 C425.210124,65.2861347 424.607416,67.567813 424.607416,70.6674514 L424.607416,86.1010679 L418.278988,86.1010679 L418.278988,56.2670478 Z M470.187169,56.2670478 L476.515597,56.2670478 L476.515597,86.1010679 L470.187169,86.1010679 L470.187169,56.2670478 Z M473.351383,40.639704 C474.642899,40.639704 475.740688,41.0917346 476.644749,41.9957958 C477.54881,42.8998571 478.000841,43.9976457 478.000841,45.2891617 C478.000841,46.5806777 477.54881,47.6784663 476.644749,48.5825275 C475.740688,49.4865887 474.642899,49.9386194 473.351383,49.9386194 C472.059867,49.9386194 470.962079,49.4865887 470.058017,48.5825275 C469.153956,47.6784663 468.701926,46.5806777 468.701926,45.2891617 C468.701926,43.9976457 469.153956,42.8998571 470.058017,41.9957958 C470.962079,41.0917346 472.059867,40.639704 473.351383,40.639704 Z M500.763811,55.2984108 C504.207853,55.2984108 506.941562,56.3100984 508.964937,58.3334735 C510.988312,60.313798 512,63.456487 512,67.7615404 L512,86.1010679 L505.671572,86.1010679 L505.671572,68.859329 C505.671572,64.0376692 503.389893,61.6268393 498.826537,61.6268393 C496.372656,61.6268393 494.435382,62.4447995 493.014715,64.0807198 C491.594047,65.71664 490.883713,68.2996721 490.883713,71.8298159 L490.883713,86.1010679 L484.555285,86.1010679 L484.555285,56.2670478 L490.883713,56.2670478 L490.883713,60.7873539 L491.012865,60.7873539 C493.07929,57.1280585 496.329606,55.2984108 500.763811,55.2984108 Z" fill="#233A5E"></path>
        <path d="M10.7626335,0 L118.388968,0 C124.333007,0 129.151602,4.81859514 129.151602,10.7626335 L129.151602,118.388968 C129.151602,124.333007 124.333007,129.151602 118.388968,129.151602 L10.7626335,129.151602 C4.81859514,129.151602 0,124.333007 0,118.388968 L0,10.7626335 C0,4.81859514 4.81859514,0 10.7626335,0 Z" fill="#54BD7E"></path>
        <path d="M68.4568065,42.6889094 C84.0300681,41.5155133 93.4436055,34.0995207 96.3766922,24.2159253 C75.8249054,33.6854284 50.1802405,22.1008257 45.3265618,43.0244345 L42.83851,54.1788279 C47.1669722,47.4632137 52.8843521,43.8623056 68.4568065,42.6889094 Z M60.3592702,44.5882452 C52.7054234,45.690877 46.5658791,49.2414698 43.120222,55.4778777 C42.0111326,57.4845708 41.6215253,59.6411334 41.6215253,59.6411334 L39.8602203,67.5363323 C42.0665602,63.6017826 46.0121416,58.5737493 56.3526108,56.1812158 C56.5853527,54.9292525 57.9974102,47.7527285 60.3592702,44.5882452 Z M38.2530901,74.740301 L35.5632389,86.8001009 C42.6902548,73.2297654 58.0280837,70.5958799 59.9220382,70.2000841 C73.2781973,67.4069116 79.7086017,60.7752459 82.2658034,52.1573362 C70.6117548,58.7475658 43.4094678,50.472446 38.2530901,74.740301 Z M34.2676869,92.6105777 L32.2879004,101.486252 C48.0831413,100.59699 49.8250736,85.4176406 52.4024552,73.3591861 C47.4882368,75.0744808 36.6583368,81.7962835 34.2676869,92.6105777 Z" fill="#FFFFFF"></path>
    </g>
</svg>

<svg preserveAspectRatio="xMidYMid" viewBox="0 0 512 130" xmlns="http://www.w3.org/2000/svg">
  <path fill="#233A5E" d="M161.913 47.226v12.722h17.952v6.328h-17.952v19.825h-6.716V40.898h26.153v6.328h-19.437Zm37.372 8.072c3.1 0 5.876.69 8.33 2.067 2.497 1.377 4.456 3.272 5.876 5.683 1.421 2.41 2.131 5.123 2.131 8.136 0 3.014-.71 5.726-2.13 8.137-1.421 2.41-3.38 4.305-5.877 5.682-2.454 1.378-5.23 2.067-8.33 2.067-3.1 0-5.898-.69-8.395-2.067a15.347 15.347 0 0 1-5.812-5.682c-1.42-2.411-2.131-5.123-2.131-8.137 0-3.013.71-5.726 2.131-8.136a15.347 15.347 0 0 1 5.812-5.683c2.497-1.378 5.295-2.067 8.395-2.067Zm0 6.2c-2.842 0-5.166.882-6.974 2.647-1.766 1.765-2.648 4.112-2.648 7.04 0 2.926.882 5.273 2.648 7.038 1.808 1.765 4.132 2.647 6.974 2.647 2.841 0 5.144-.882 6.91-2.647 1.807-1.765 2.711-4.112 2.711-7.039 0-2.927-.904-5.274-2.712-7.039-1.765-1.765-4.068-2.647-6.91-2.647Zm38.965 1.291h-.968c-3.143 0-5.51.818-7.104 2.454-1.593 1.593-2.389 4.133-2.389 7.62v13.238h-6.328V56.267h6.328v6.522h.13c.731-2.281 1.936-4.09 3.615-5.424 1.722-1.335 3.81-2.002 6.264-2.002h.452v7.426Zm16.189-7.49c4.477 0 7.964 1.442 10.46 4.326 2.54 2.841 3.81 6.694 3.81 11.56v1.032h-23.117c.129 2.626 1.011 4.757 2.647 6.393 1.68 1.593 3.81 2.39 6.393 2.39 2.153 0 3.94-.496 5.36-1.486a16.552 16.552 0 0 0 3.81-3.745l4.456 4.197c-3.444 4.736-7.943 7.104-13.497 7.104-3.142 0-5.897-.646-8.265-1.938-2.325-1.334-4.133-3.185-5.425-5.553-1.248-2.41-1.872-5.188-1.872-8.33 0-3.014.602-5.726 1.808-8.137 1.248-2.454 3.013-4.37 5.295-5.747 2.325-1.378 5.037-2.067 8.137-2.067Zm-.388 5.811c-2.195 0-4.004.56-5.424 1.68-1.42 1.119-2.325 2.733-2.712 4.842h15.95c-.13-2.066-.904-3.659-2.325-4.778-1.378-1.163-3.207-1.744-5.489-1.744Zm29.679 25.96c-2.11 0-4.24-.28-6.393-.84-2.11-.56-4.025-1.334-5.747-2.325l2.841-5.618c3.272 1.895 6.436 2.842 9.493 2.842 3.1 0 4.65-.926 4.65-2.777 0-.646-.238-1.205-.711-1.679-.43-.517-1.249-1.076-2.454-1.679l-5.424-2.648c-4.176-1.98-6.264-4.843-6.264-8.588 0-2.712.925-4.8 2.776-6.264 1.895-1.464 4.5-2.196 7.814-2.196 1.68 0 3.401.216 5.166.646 1.808.388 3.53.947 5.166 1.68l-2.583 5.488c-3.013-1.291-5.66-1.937-7.943-1.937-2.454 0-3.68.753-3.68 2.26 0 .732.236 1.356.71 1.873.517.516 1.42 1.076 2.712 1.679l5.554 2.647c1.98.904 3.465 2.045 4.455 3.423.99 1.334 1.486 2.992 1.486 4.972 0 2.97-1.055 5.23-3.165 6.78-2.066 1.507-4.886 2.26-8.46 2.26Zm25.529-25.443v15.627c0 1.076.237 1.873.71 2.39.517.473 1.313.71 2.39.71h1.55v5.812h-2.907c-2.626 0-4.627-.668-6.005-2.002-1.378-1.335-2.067-3.229-2.067-5.683V61.627h-5.295v-5.36h5.295V44.321h6.329v11.946h6.07v5.36h-6.07Zm56.574 13.238h-19.76L341.745 86.1h-7.362l18.469-45.203h6.2L377.52 86.1h-7.362l-4.326-11.236Zm-2.39-6.2-7.49-19.372-7.491 19.373h14.981Zm30.222 18.405c-2.67 0-5.102-.646-7.297-1.938-2.196-1.291-3.96-3.12-5.295-5.489-1.292-2.41-1.938-5.23-1.938-8.459 0-3.229.646-6.027 1.938-8.395 1.334-2.41 3.1-4.262 5.295-5.553 2.195-1.292 4.628-1.938 7.297-1.938 2.368 0 4.391.474 6.07 1.421a10.654 10.654 0 0 1 4.004 3.94h.129V40.897h6.328V86.1h-6.328v-4.39h-.13a10.654 10.654 0 0 1-4.003 3.939c-1.679.947-3.702 1.42-6.07 1.42Zm1.356-6.2c2.755 0 4.972-.882 6.651-2.647 1.68-1.808 2.519-4.155 2.519-7.039 0-2.884-.84-5.21-2.519-6.974-1.679-1.808-3.896-2.712-6.651-2.712s-4.972.904-6.651 2.712c-1.68 1.765-2.519 4.09-2.519 6.974 0 2.884.84 5.23 2.519 7.039 1.679 1.765 3.896 2.647 6.65 2.647Zm23.258-24.603h6.328v4.65h.13c.818-1.938 2.001-3.358 3.551-4.262 1.593-.905 3.401-1.357 5.425-1.357 4.348 0 7.361 2.024 9.04 6.07h.13c.86-2.023 2.13-3.53 3.81-4.52 1.678-1.033 3.53-1.55 5.553-1.55 3.013 0 5.467 1.012 7.362 3.035 1.894 2.024 2.84 5.123 2.84 9.3V86.1h-6.328V67.955c0-2.066-.516-3.638-1.55-4.714-.99-1.076-2.432-1.614-4.326-1.614-2.066 0-3.702.732-4.908 2.195-1.205 1.421-1.808 3.681-1.808 6.78v15.5H437.2V67.954c0-2.066-.517-3.638-1.55-4.714-.99-1.076-2.454-1.614-4.391-1.614-2.024 0-3.638.732-4.843 2.195-1.206 1.464-1.809 3.746-1.809 6.845V86.1h-6.328V56.267Zm51.908 0h6.329v29.834h-6.329V56.267Zm3.164-15.627c1.292 0 2.39.452 3.294 1.356.904.904 1.356 2.002 1.356 3.293 0 1.292-.452 2.39-1.356 3.294-.904.904-2.002 1.356-3.294 1.356-1.291 0-2.389-.452-3.293-1.356-.904-.905-1.356-2.002-1.356-3.294 0-1.291.452-2.39 1.356-3.293.904-.904 2.002-1.356 3.293-1.356Zm27.413 14.658c3.444 0 6.178 1.012 8.2 3.035 2.024 1.98 3.036 5.123 3.036 9.429v18.34h-6.328V68.858c0-4.821-2.282-7.232-6.845-7.232-2.454 0-4.392.818-5.812 2.454-1.421 1.636-2.131 4.219-2.131 7.749V86.1h-6.329V56.267h6.329v4.52h.129c2.066-3.659 5.317-5.489 9.75-5.489Z"/>
  <path fill="#54BD7E" d="M10.763 0h107.626c5.944 0 10.763 4.819 10.763 10.763v107.626c0 5.944-4.819 10.763-10.763 10.763H10.763C4.819 129.152 0 124.333 0 118.389V10.763C0 4.819 4.819 0 10.763 0Z"/>
  <path fill="#FFF" d="M68.457 42.689c15.573-1.173 24.987-8.59 27.92-18.473-20.552 9.47-46.197-2.115-51.05 18.808L42.839 54.18c4.328-6.716 10.045-10.317 25.618-11.49Zm-8.098 1.9C52.705 45.69 46.566 49.24 43.12 55.477c-1.109 2.007-1.498 4.163-1.498 4.163l-1.762 7.895c2.207-3.934 6.152-8.962 16.493-11.355.232-1.252 1.644-8.428 4.006-11.593ZM38.253 74.74l-2.69 12.06c7.127-13.57 22.465-16.204 24.359-16.6 13.356-2.793 19.787-9.425 22.344-18.043-11.654 6.59-38.857-1.685-44.013 22.583Zm-3.985 17.87-1.98 8.876c15.795-.889 17.537-16.068 20.114-28.127-4.914 1.715-15.744 8.437-18.134 19.252Z"/>
</svg>
